daeta/img/token3.svg

<svg width="195" height="175" viewBox="0 0 195 175" fill="none" xmlns="http://www.w3.org/2000/svg">
<path d="M194.75 49.584C194.75 62.9002 183.949 75.0231 166.331 83.8318C148.729 92.6331 124.393 98.084 97.5 98.084C70.6065 98.084 46.2714 92.6331 28.6689 83.8318C11.0514 75.0231 0.25 62.9002 0.25 49.584C0.25 36.2677 11.0514 24.1449 28.6689 15.3361C46.2714 6.53489 70.6065 1.08398 97.5 1.08398C124.393 1.08398 148.729 6.53489 166.331 15.3361C183.949 24.1449 194.75 36.2677 194.75 49.584Z" stroke="url(#paint0_linear_1_608)" stroke-width="0.5"/>
<path d="M194.75 55C194.75 68.3163 183.949 80.4392 166.331 89.2479C148.729 98.0491 124.393 103.5 97.5 103.5C70.6065 103.5 46.2714 98.0491 28.6689 89.2479C11.0514 80.4392 0.25 68.3163 0.25 55C0.25 41.6838 11.0514 29.5609 28.6689 20.7522C46.2714 11.9509 70.6065 6.50003 97.5 6.50003C124.393 6.50003 148.729 11.9509 166.331 20.7522C183.949 29.5609 194.75 41.6838 194.75 55Z" stroke="url(#paint1_linear_1_608)" stroke-width="0.5"/>
<path d="M194.75 60.4179C194.75 73.7342 183.949 85.8571 166.331 94.6658C148.729 103.467 124.393 108.918 97.5 108.918C70.6065 108.918 46.2714 103.467 28.6689 94.6658C11.0514 85.8571 0.25 73.7342 0.25 60.4179C0.25 47.1017 11.0514 34.9788 28.6689 26.1701C46.2714 17.3688 70.6065 11.9179 97.5 11.9179C124.393 11.9179 148.729 17.3688 166.331 26.1701C183.949 34.9788 194.75 47.1017 194.75 60.4179Z" stroke="url(#paint2_linear_1_608)" stroke-width="0.5"/>
<path d="M194.75 65.834C194.75 79.1502 183.949 91.2731 166.331 100.082C148.729 108.883 124.393 114.334 97.5 114.334C70.6065 114.334 46.2714 108.883 28.6689 100.082C11.0514 91.2731 0.25 79.1502 0.25 65.834C0.25 52.5177 11.0514 40.3949 28.6689 31.5861C46.2714 22.7849 70.6065 17.334 97.5 17.334C124.393 17.334 148.729 22.7849 166.331 31.5861C183.949 40.3949 194.75 52.5177 194.75 65.834Z" stroke="url(#paint3_linear_1_608)" stroke-width="0.5"/>
<path d="M194.75 71.25C194.75 84.5663 183.949 96.6892 166.331 105.498C148.729 114.299 124.393 119.75 97.5 119.75C70.6065 119.75 46.2714 114.299 28.6689 105.498C11.0514 96.6892 0.25 84.5663 0.25 71.25C0.25 57.9338 11.0514 45.8109 28.6689 37.0022C46.2714 28.2009 70.6065 22.75 97.5 22.75C124.393 22.75 148.729 28.2009 166.331 37.0022C183.949 45.8109 194.75 57.9338 194.75 71.25Z" stroke="url(#paint4_linear_1_608)" stroke-width="0.5"/>
<path d="M194.75 76.6679C194.75 89.9842 183.949 102.107 166.331 110.916C148.729 119.717 124.393 125.168 97.5 125.168C70.6065 125.168 46.2714 119.717 28.6689 110.916C11.0514 102.107 0.25 89.9842 0.25 76.6679C0.25 63.3517 11.0514 51.2288 28.6689 42.4201C46.2714 33.6188 70.6065 28.1679 97.5 28.1679C124.393 28.1679 148.729 33.6188 166.331 42.4201C183.949 51.2288 194.75 63.3517 194.75 76.6679Z" stroke="url(#paint5_linear_1_608)" stroke-width="0.5"/>
<path d="M194.75 82.084C194.75 95.4002 183.949 107.523 166.331 116.332C148.729 125.133 124.393 130.584 97.5 130.584C70.6065 130.584 46.2714 125.133 28.6689 116.332C11.0514 107.523 0.25 95.4002 0.25 82.084C0.25 68.7677 11.0514 56.6449 28.6689 47.8361C46.2714 39.0349 70.6065 33.584 97.5 33.584C124.393 33.584 148.729 39.0349 166.331 47.8361C183.949 56.6449 194.75 68.7677 194.75 82.084Z" stroke="url(#paint6_linear_1_608)" stroke-width="0.5"/>
<path d="M194.75 87.5C194.75 100.816 183.949 112.939 166.331 121.748C148.729 130.549 124.393 136 97.5 136C70.6065 136 46.2714 130.549 28.6689 121.748C11.0514 112.939 0.25 100.816 0.25 87.5C0.25 74.1838 11.0514 62.0609 28.6689 53.2522C46.2714 44.4509 70.6065 39 97.5 39C124.393 39 148.729 44.4509 166.331 53.2522C183.949 62.0609 194.75 74.1838 194.75 87.5Z" stroke="url(#paint7_linear_1_608)" stroke-width="0.5"/>
<path d="M194.75 92.9179C194.75 106.234 183.949 118.357 166.331 127.166C148.729 135.967 124.393 141.418 97.5 141.418C70.6065 141.418 46.2714 135.967 28.6689 127.166C11.0514 118.357 0.25 106.234 0.25 92.9179C0.25 79.6017 11.0514 67.4788 28.6689 58.6701C46.2714 49.8688 70.6065 44.4179 97.5 44.4179C124.393 44.4179 148.729 49.8688 166.331 58.6701C183.949 67.4788 194.75 79.6017 194.75 92.9179Z" stroke="url(#paint8_linear_1_608)" stroke-width="0.5"/>
<path d="M194.75 98.334C194.75 111.65 183.949 123.773 166.331 132.582C148.729 141.383 124.393 146.834 97.5 146.834C70.6065 146.834 46.2714 141.383 28.6689 132.582C11.0514 123.773 0.25 111.65 0.25 98.334C0.25 85.0177 11.0514 72.8949 28.6689 64.0861C46.2714 55.2849 70.6065 49.834 97.5 49.834C124.393 49.834 148.729 55.2849 166.331 64.0861C183.949 72.8949 194.75 85.0177 194.75 98.334Z" stroke="url(#paint9_linear_1_608)" stroke-width="0.5"/>
<path d="M194.75 103.75C194.75 117.066 183.949 129.189 166.331 137.998C148.729 146.799 124.393 152.25 97.5 152.25C70.6065 152.25 46.2714 146.799 28.6689 137.998C11.0514 129.189 0.25 117.066 0.25 103.75C0.25 90.4338 11.0514 78.3109 28.6689 69.5022C46.2714 60.7009 70.6065 55.25 97.5 55.25C124.393 55.25 148.729 60.7009 166.331 69.5022C183.949 78.3109 194.75 90.4338 194.75 103.75Z" stroke="url(#paint10_linear_1_608)" stroke-width="0.5"/>
<path d="M194.75 109.168C194.75 122.484 183.949 134.607 166.331 143.416C148.729 152.217 124.393 157.668 97.5 157.668C70.6065 157.668 46.2714 152.217 28.6689 143.416C11.0514 134.607 0.25 122.484 0.25 109.168C0.25 95.8517 11.0514 83.7288 28.6689 74.9201C46.2714 66.1188 70.6065 60.6679 97.5 60.6679C124.393 60.6679 148.729 66.1188 166.331 74.9201C183.949 83.7288 194.75 95.8517 194.75 109.168Z" stroke="url(#paint11_linear_1_608)" stroke-width="0.5"/>
<path d="M194.75 114.584C194.75 127.9 183.949 140.023 166.331 148.832C148.729 157.633 124.393 163.084 97.5 163.084C70.6065 163.084 46.2714 157.633 28.6689 148.832C11.0514 140.023 0.25 127.9 0.25 114.584C0.25 101.268 11.0514 89.1449 28.6689 80.3361C46.2714 71.5349 70.6065 66.084 97.5 66.084C124.393 66.084 148.729 71.5349 166.331 80.3361C183.949 89.1449 194.75 101.268 194.75 114.584Z" stroke="url(#paint12_linear_1_608)" stroke-width="0.5"/>
<path d="M194.75 120C194.75 133.316 183.949 145.439 166.331 154.248C148.729 163.049 124.393 168.5 97.5 168.5C70.6065 168.5 46.2714 163.049 28.6689 154.248C11.0514 145.439 0.25 133.316 0.25 120C0.25 106.684 11.0514 94.5609 28.6689 85.7522C46.2714 76.9509 70.6065 71.5 97.5 71.5C124.393 71.5 148.729 76.9509 166.331 85.7522C183.949 94.5609 194.75 106.684 194.75 120Z" stroke="url(#paint13_linear_1_608)" stroke-width="0.5"/>
<path d="M194.75 125.418C194.75 138.734 183.949 150.857 166.331 159.666C148.729 168.467 124.393 173.918 97.5 173.918C70.6065 173.918 46.2714 168.467 28.6689 159.666C11.0514 150.857 0.25 138.734 0.25 125.418C0.25 112.102 11.0514 99.9788 28.6689 91.1701C46.2714 82.3688 70.6065 76.9179 97.5 76.9179C124.393 76.9179 148.729 82.3688 166.331 91.1701C183.949 99.9788 194.75 112.102 194.75 125.418Z" stroke="url(#paint14_linear_1_608)" stroke-width="0.5"/>
<defs>
<linearGradient id="paint0_linear_1_608" x1="97.5" y1="0.833984" x2="97.5" y2="98.334" gradientUnits="userSpaceOnUse">
<stop stop-color="white"/>
<stop offset="1" stop-color="#807D7D" stop-opacity="0.54"/>
</linearGradient>
<linearGradient id="paint1_linear_1_608" x1="97.5" y1="6.25003" x2="97.5" y2="103.75" gradientUnits="userSpaceOnUse">
<stop stop-color="white"/>
<stop offset="1" stop-color="#807D7D" stop-opacity="0.54"/>
</linearGradient>
<linearGradient id="paint2_linear_1_608" x1="97.5" y1="11.6679" x2="97.5" y2="109.168" gradientUnits="userSpaceOnUse">
<stop stop-color="white"/>
<stop offset="1" stop-color="#807D7D" stop-opacity="0.54"/>
</linearGradient>
<linearGradient id="paint3_linear_1_608" x1="97.5" y1="17.084" x2="97.5" y2="114.584" gradientUnits="userSpaceOnUse">
<stop stop-color="white"/>
<stop offset="1" stop-color="#807D7D" stop-opacity="0.54"/>
</linearGradient>
<linearGradient id="paint4_linear_1_608" x1="97.5" y1="22.5" x2="97.5" y2="120" gradientUnits="userSpaceOnUse">
<stop stop-color="white"/>
<stop offset="1" stop-color="#807D7D" stop-opacity="0.54"/>
</linearGradient>
<linearGradient id="paint5_linear_1_608" x1="97.5" y1="27.9179" x2="97.5" y2="125.418" gradientUnits="userSpaceOnUse">
<stop stop-color="white"/>
<stop offset="1" stop-color="#807D7D" stop-opacity="0.54"/>
</linearGradient>
<linearGradient id="paint6_linear_1_608" x1="97.5" y1="33.334" x2="97.5" y2="130.834" gradientUnits="userSpaceOnUse">
<stop stop-color="white"/>
<stop offset="1" stop-color="#807D7D" stop-opacity="0.54"/>
</linearGradient>
<linearGradient id="paint7_linear_1_608" x1="97.5" y1="38.75" x2="97.5" y2="136.25" gradientUnits="userSpaceOnUse">
<stop stop-color="white"/>
<stop offset="1" stop-color="#807D7D" stop-opacity="0.54"/>
</linearGradient>
<linearGradient id="paint8_linear_1_608" x1="97.5" y1="44.1679" x2="97.5" y2="141.668" gradientUnits="userSpaceOnUse">
<stop stop-color="white"/>
<stop offset="1" stop-color="#807D7D" stop-opacity="0.54"/>
</linearGradient>
<linearGradient id="paint9_linear_1_608" x1="97.5" y1="49.584" x2="97.5" y2="147.084" gradientUnits="userSpaceOnUse">
<stop stop-color="white"/>
<stop offset="1" stop-color="#807D7D" stop-opacity="0.54"/>
</linearGradient>
<linearGradient id="paint10_linear_1_608" x1="97.5" y1="55" x2="97.5" y2="152.5" gradientUnits="userSpaceOnUse">
<stop stop-color="white"/>
<stop offset="1" stop-color="#807D7D" stop-opacity="0.54"/>
</linearGradient>
<linearGradient id="paint11_linear_1_608" x1="97.5" y1="60.4179" x2="97.5" y2="157.918" gradientUnits="userSpaceOnUse">
<stop stop-color="white"/>
<stop offset="1" stop-color="#807D7D" stop-opacity="0.54"/>
</linearGradient>
<linearGradient id="paint12_linear_1_608" x1="97.5" y1="65.834" x2="97.5" y2="163.334" gradientUnits="userSpaceOnUse">
<stop stop-color="white"/>
<stop offset="1" stop-color="#807D7D" stop-opacity="0.54"/>
</linearGradient>
<linearGradient id="paint13_linear_1_608" x1="97.5" y1="71.25" x2="97.5" y2="168.75" gradientUnits="userSpaceOnUse">
<stop stop-color="white"/>
<stop offset="1" stop-color="#807D7D" stop-opacity="0.54"/>
</linearGradient>
<linearGradient id="paint14_linear_1_608" x1="97.5" y1="76.6679" x2="97.5" y2="174.168" gradientUnits="userSpaceOnUse">
<stop stop-color="white"/>
<stop offset="1" stop-color="#807D7D" stop-opacity="0.54"/>
</linearGradient>
</defs>
</svg>

<svg xmlns="http://www.w3.org/2000/svg" width="195" height="175" fill="none"><path stroke="url(#a)" stroke-width=".5" d="M194.75 49.584c0 13.316-10.801 25.44-28.419 34.248-17.602 8.801-41.938 14.252-68.831 14.252s-51.229-5.45-68.831-14.252C11.05 75.023.25 62.9.25 49.584s10.801-25.44 28.419-34.248C46.27 6.535 70.607 1.084 97.5 1.084s51.229 5.45 68.831 14.252c17.618 8.809 28.419 20.932 28.419 34.248Z"/><path stroke="url(#b)" stroke-width=".5" d="M194.75 55c0 13.316-10.801 25.44-28.419 34.248C148.729 98.049 124.393 103.5 97.5 103.5s-51.229-5.45-68.831-14.252C11.05 80.439.25 68.316.25 55s10.801-25.44 28.419-34.248C46.27 11.951 70.607 6.5 97.5 6.5s51.229 5.45 68.831 14.252C183.949 29.561 194.75 41.684 194.75 55Z"/><path stroke="url(#c)" stroke-width=".5" d="M194.75 60.418c0 13.316-10.801 25.44-28.419 34.248-17.602 8.801-41.938 14.252-68.831 14.252s-51.229-5.451-68.831-14.252C11.05 85.857.25 73.734.25 60.418s10.801-25.44 28.419-34.248C46.27 17.37 70.607 11.918 97.5 11.918s51.229 5.45 68.831 14.252c17.618 8.809 28.419 20.932 28.419 34.248Z"/><path stroke="url(#d)" stroke-width=".5" d="M194.75 65.834c0 13.316-10.801 25.44-28.419 34.248-17.602 8.801-41.938 14.252-68.831 14.252s-51.229-5.451-68.831-14.252C11.05 91.273.25 79.15.25 65.834s10.801-25.44 28.419-34.248C46.27 22.785 70.607 17.334 97.5 17.334s51.229 5.45 68.831 14.252c17.618 8.809 28.419 20.932 28.419 34.248Z"/><path stroke="url(#e)" stroke-width=".5" d="M194.75 71.25c0 13.316-10.801 25.44-28.419 34.248-17.602 8.801-41.938 14.252-68.831 14.252s-51.229-5.451-68.831-14.252C11.05 96.689.25 84.566.25 71.25s10.801-25.44 28.419-34.248C46.27 28.201 70.607 22.75 97.5 22.75s51.229 5.45 68.831 14.252c17.618 8.809 28.419 20.932 28.419 34.248Z"/><path stroke="url(#f)" stroke-width=".5" d="M194.75 76.668c0 13.316-10.801 25.439-28.419 34.248-17.602 8.801-41.938 14.252-68.831 14.252s-51.229-5.451-68.831-14.252C11.05 102.107.25 89.984.25 76.668s10.801-25.44 28.419-34.248C46.27 33.62 70.607 28.168 97.5 28.168s51.229 5.45 68.831 14.252c17.618 8.809 28.419 20.932 28.419 34.248Z"/><path stroke="url(#g)" stroke-width=".5" d="M194.75 82.084c0 13.316-10.801 25.439-28.419 34.248-17.602 8.801-41.938 14.252-68.831 14.252s-51.229-5.451-68.831-14.252C11.05 107.523.25 95.4.25 82.084s10.801-25.44 28.419-34.248C46.27 39.035 70.607 33.584 97.5 33.584s51.229 5.45 68.831 14.252c17.618 8.809 28.419 20.932 28.419 34.248Z"/><path stroke="url(#h)" stroke-width=".5" d="M194.75 87.5c0 13.316-10.801 25.439-28.419 34.248C148.729 130.549 124.393 136 97.5 136s-51.229-5.451-68.831-14.252C11.05 112.939.25 100.816.25 87.5s10.801-25.44 28.419-34.248C46.27 44.451 70.607 39 97.5 39s51.229 5.45 68.831 14.252c17.618 8.809 28.419 20.932 28.419 34.248Z"/><path stroke="url(#i)" stroke-width=".5" d="M194.75 92.918c0 13.316-10.801 25.439-28.419 34.248-17.602 8.801-41.938 14.252-68.831 14.252s-51.229-5.451-68.831-14.252C11.05 118.357.25 106.234.25 92.918s10.801-25.44 28.419-34.248C46.27 49.87 70.607 44.418 97.5 44.418s51.229 5.45 68.831 14.252c17.618 8.809 28.419 20.932 28.419 34.248Z"/><path stroke="url(#j)" stroke-width=".5" d="M194.75 98.334c0 13.316-10.801 25.439-28.419 34.248-17.602 8.801-41.938 14.252-68.831 14.252s-51.229-5.451-68.831-14.252C11.05 123.773.25 111.65.25 98.334s10.801-25.44 28.419-34.248C46.27 55.285 70.607 49.834 97.5 49.834s51.229 5.45 68.831 14.252c17.618 8.809 28.419 20.932 28.419 34.248Z"/><path stroke="url(#k)" stroke-width=".5" d="M194.75 103.75c0 13.316-10.801 25.439-28.419 34.248-17.602 8.801-41.938 14.252-68.831 14.252s-51.229-5.451-68.831-14.252C11.05 129.189.25 117.066.25 103.75s10.801-25.44 28.419-34.248C46.27 60.701 70.607 55.25 97.5 55.25s51.229 5.45 68.831 14.252c17.618 8.809 28.419 20.932 28.419 34.248Z"/><path stroke="url(#l)" stroke-width=".5" d="M194.75 109.168c0 13.316-10.801 25.439-28.419 34.248-17.602 8.801-41.938 14.252-68.831 14.252s-51.229-5.451-68.831-14.252C11.05 134.607.25 122.484.25 109.168s10.801-25.44 28.419-34.248C46.27 66.12 70.607 60.668 97.5 60.668s51.229 5.45 68.831 14.252c17.618 8.809 28.419 20.932 28.419 34.248Z"/><path stroke="url(#m)" stroke-width=".5" d="M194.75 114.584c0 13.316-10.801 25.439-28.419 34.248-17.602 8.801-41.938 14.252-68.831 14.252s-51.229-5.451-68.831-14.252C11.05 140.023.25 127.9.25 114.584s10.801-25.44 28.419-34.248C46.27 71.535 70.607 66.084 97.5 66.084s51.229 5.45 68.831 14.252c17.618 8.809 28.419 20.932 28.419 34.248Z"/><path stroke="url(#n)" stroke-width=".5" d="M194.75 120c0 13.316-10.801 25.439-28.419 34.248-17.602 8.801-41.938 14.252-68.831 14.252s-51.229-5.451-68.831-14.252C11.05 145.439.25 133.316.25 120s10.801-25.44 28.419-34.248C46.27 76.951 70.607 71.5 97.5 71.5s51.229 5.45 68.831 14.252c17.618 8.809 28.419 20.932 28.419 34.248Z"/><path stroke="url(#o)" stroke-width=".5" d="M194.75 125.418c0 13.316-10.801 25.439-28.419 34.248-17.602 8.801-41.938 14.252-68.831 14.252s-51.229-5.451-68.831-14.252C11.05 150.857.25 138.734.25 125.418s10.801-25.44 28.419-34.248C46.27 82.37 70.607 76.918 97.5 76.918s51.229 5.45 68.831 14.252c17.618 8.809 28.419 20.932 28.419 34.248Z"/><defs><linearGradient id="a" x1="97.5" x2="97.5" y1=".834" y2="98.334" gradientUnits="userSpaceOnUse"><stop stop-color="#fff"/><stop offset="1" stop-color="#807D7D" stop-opacity=".54"/></linearGradient><linearGradient id="b" x1="97.5" x2="97.5" y1="6.25" y2="103.75" gradientUnits="userSpaceOnUse"><stop stop-color="#fff"/><stop offset="1" stop-color="#807D7D" stop-opacity=".54"/></linearGradient><linearGradient id="c" x1="97.5" x2="97.5" y1="11.668" y2="109.168" gradientUnits="userSpaceOnUse"><stop stop-color="#fff"/><stop offset="1" stop-color="#807D7D" stop-opacity=".54"/></linearGradient><linearGradient id="d" x1="97.5" x2="97.5" y1="17.084" y2="114.584" gradientUnits="userSpaceOnUse"><stop stop-color="#fff"/><stop offset="1" stop-color="#807D7D" stop-opacity=".54"/></linearGradient><linearGradient id="e" x1="97.5" x2="97.5" y1="22.5" y2="120" gradientUnits="userSpaceOnUse"><stop stop-color="#fff"/><stop offset="1" stop-color="#807D7D" stop-opacity=".54"/></linearGradient><linearGradient id="f" x1="97.5" x2="97.5" y1="27.918" y2="125.418" gradientUnits="userSpaceOnUse"><stop stop-color="#fff"/><stop offset="1" stop-color="#807D7D" stop-opacity=".54"/></linearGradient><linearGradient id="g" x1="97.5" x2="97.5" y1="33.334" y2="130.834" gradientUnits="userSpaceOnUse"><stop stop-color="#fff"/><stop offset="1" stop-color="#807D7D" stop-opacity=".54"/></linearGradient><linearGradient id="h" x1="97.5" x2="97.5" y1="38.75" y2="136.25" gradientUnits="userSpaceOnUse"><stop stop-color="#fff"/><stop offset="1" stop-color="#807D7D" stop-opacity=".54"/></linearGradient><linearGradient id="i" x1="97.5" x2="97.5" y1="44.168" y2="141.668" gradientUnits="userSpaceOnUse"><stop stop-color="#fff"/><stop offset="1" stop-color="#807D7D" stop-opacity=".54"/></linearGradient><linearGradient id="j" x1="97.5" x2="97.5" y1="49.584" y2="147.084" gradientUnits="userSpaceOnUse"><stop stop-color="#fff"/><stop offset="1" stop-color="#807D7D" stop-opacity=".54"/></linearGradient><linearGradient id="k" x1="97.5" x2="97.5" y1="55" y2="152.5" gradientUnits="userSpaceOnUse"><stop stop-color="#fff"/><stop offset="1" stop-color="#807D7D" stop-opacity=".54"/></linearGradient><linearGradient id="l" x1="97.5" x2="97.5" y1="60.418" y2="157.918" gradientUnits="userSpaceOnUse"><stop stop-color="#fff"/><stop offset="1" stop-color="#807D7D" stop-opacity=".54"/></linearGradient><linearGradient id="m" x1="97.5" x2="97.5" y1="65.834" y2="163.334" gradientUnits="userSpaceOnUse"><stop stop-color="#fff"/><stop offset="1" stop-color="#807D7D" stop-opacity=".54"/></linearGradient><linearGradient id="n" x1="97.5" x2="97.5" y1="71.25" y2="168.75" gradientUnits="userSpaceOnUse"><stop stop-color="#fff"/><stop offset="1" stop-color="#807D7D" stop-opacity=".54"/></linearGradient><linearGradient id="o" x1="97.5" x2="97.5" y1="76.668" y2="174.168" gradientUnits="userSpaceOnUse"><stop stop-color="#fff"/><stop offset="1" stop-color="#807D7D" stop-opacity=".54"/></linearGradient></defs></svg>
